third_party/noto/noto_2/emoji_u1f4e5.svg

<svg enable-background="new 0 0 128 128" viewBox="0 0 128 128" xmlns="http://www.w3.org/2000/svg"><path d="m113.76 112.44h-99.85c-3.39 0-6.14-2.75-6.14-6.14v-24.04c0-3.39 2.75-6.14 6.14-6.14h99.86c3.39 0 6.14 2.75 6.14 6.14v24.04c0 3.39-2.75 6.14-6.15 6.14z" fill="#795548"/><g opacity=".2"><path d="m113.76 79.11c1.73 0 3.14 1.41 3.14 3.14v24.04c0 1.73-1.41 3.14-3.14 3.14h-99.85c-1.73 0-3.14-1.41-3.14-3.14v-24.03c0-1.73 1.41-3.14 3.14-3.14h99.85m0-3.01h-99.85c-3.39 0-6.14 2.75-6.14 6.14v24.04c0 3.39 2.75 6.14 6.14 6.14h99.86c3.39 0 6.14-2.75 6.14-6.14v-24.03c0-3.4-2.75-6.15-6.15-6.15z" fill="#444"/></g><rect x="11.9" y="87.87" width="104.05" height="21.74" fill="#ECEFF1"/><line x1="32.17" x2="95.83" y1="93.01" y2="93.01" fill="none" stroke="#90A4AE" stroke-linecap="round" stroke-linejoin="round" stroke-miterlimit="10" stroke-width="2"/><g opacity=".2"><path d="m113.95 89.87v17.74h-100.05v-17.74h100.05m2-2h-104.05v21.74h104.05v-21.74z" fill="#444"/></g><line x1="32.17" x2="95.83" y1="99.04" y2="99.04" fill="none" stroke="#90A4AE" stroke-linecap="round" stroke-linejoin="round" stroke-miterlimit="10" stroke-width="2"/><linearGradient id="c" x1="63.929" x2="63.929" y1="52" y2="132.83" gradientUnits="userSpaceOnUse"><stop stop-color="#FFCC80" offset=".3438"/><stop stop-color="#FFA726" offset="1"/></linearGradient><path d="m92 76.11c0 13.15-8.33 27.85-28 27.85s-28-14.7-28-27.85c0-0.01-26.07 0-26.07 0-3.31 0-6 2.67-6 5.95v36.01c0 3.29 2.69 5.95 6 5.95h108c3.31 0 6-2.67 6-5.95v-36c0-3.29-2.69-5.95-6-5.95 0-0.01-25.93-0.02-25.93-0.01z" fill="url(#c)"/><g opacity=".2"><path d="m98.72 79.11c7.68 0 19.21 0.01 19.21 0.01 1.65 0 3 1.32 3 2.95v36.01c0 1.63-1.35 2.95-3 2.95h-108c-1.65 0-3-1.32-3-2.95v-36.01c0-1.63 1.35-2.95 3-2.95 0 0 11.59-0.01 19.31-0.01h3.89c1.22 13.93 11 27.85 30.87 27.85s29.65-13.92 30.87-27.85h3.85m0-3c-3.84 0-6.72 0-6.72 0.01 0 13.15-8.33 27.85-28 27.85s-28-14.7-28-27.85c0 0-2.9-0.01-6.76-0.01-7.72 0-19.31 0.01-19.31 0.01-3.31 0-6 2.67-6 5.95v36.01c0 3.29 2.69 5.95 6 5.95h108c3.31 0 6-2.67 6-5.95v-36.01c0-3.29-2.69-5.95-6-5.95 0-0.01-11.53-0.01-19.21-0.01z" fill="#444"/></g><linearGradient id="b" x1="64.067" x2="64.067" y1="8.8412" y2="66.002" gradientTransform="translate(0 -2.2147)" gradientUnits="userSpaceOnUse"><stop stop-color="#2196F3" offset=".0077527"/><stop stop-color="#64B5F6" offset="1"/></linearGradient><path d="m63.03 67.55-26.93-21.85c-1.21-0.98-0.51-2.93 1.04-2.93h53.86c1.56 0 2.25 1.95 1.04 2.93l-26.93 21.85c-0.61 0.49-1.48 0.49-2.08 0z" fill="url(#b)"/><linearGradient id="a" x1="64.067" x2="64.067" y1="14.839" y2="63.59" gradientTransform="translate(0 -2.2147)" gradientUnits="userSpaceOnUse"><stop stop-color="#2196F3" offset=".0077527"/><stop stop-color="#64B5F6" offset="1"/></linearGradient><path d="m76.97 47.39h-25.8c-1.1 0-2-0.9-2-2v-34.29c0-1.1 0.9-2 2-2h25.8c1.1 0 2 0.9 2 2v34.29c0 1.11-0.9 2-2 2z" fill="url(#a)"/><g opacity=".2"><path d="m76.49 11.58v31.19c0 1.37 1.11 2.48 2.48 2.48h9.7l-24.6 19.96-24.6-19.96h9.7c1.37 0 2.48-1.11 2.48-2.48v-31.19h24.84m0.83-2.48h-26.5c-0.91 0-1.65 0.74-1.65 1.65v32.01h-12.03c-1.56 0-2.25 1.95-1.04 2.93l26.93 21.85c0.3 0.25 0.67 0.37 1.04 0.37s0.74-0.12 1.04-0.37l26.93-21.84c1.21-0.98 0.51-2.93-1.04-2.93h-12.03v-32.02c0-0.91-0.74-1.65-1.65-1.65z" fill="#444"/></g></svg>

<svg width="128" height="128" style="enable-background:new 0 0 128 128;" xmlns="http://www.w3.org/2000/svg" xmlns:xlink="http://www.w3.org/1999/xlink">
  <g id="Layer_2">
    <path d="M113.76,112.44H13.91c-3.39,0-6.14-2.75-6.14-6.14V82.26c0-3.39,2.75-6.14,6.14-6.14h99.86 c3.39,0,6.14,2.75,6.14,6.14v24.04C119.91,109.69,117.16,112.44,113.76,112.44z" style="fill:#795548;"/>
    <g style="opacity:0.2;">
      <path d="M113.76,79.11c1.73,0,3.14,1.41,3.14,3.14v24.04c0,1.73-1.41,3.14-3.14,3.14H13.91 c-1.73,0-3.14-1.41-3.14-3.14V82.26c0-1.73,1.41-3.14,3.14-3.14H113.76 M113.76,76.11H13.91c-3.39,0-6.14,2.75-6.14,6.14v24.04 c0,3.39,2.75,6.14,6.14,6.14h99.86c3.39,0,6.14-2.75,6.14-6.14V82.26C119.91,78.86,117.16,76.11,113.76,76.11L113.76,76.11z" style="fill:#444444;"/>
    </g>
    <rect height="21.74" style="fill:#ECEFF1;" width="104.05" x="11.9" y="87.87"/>
    <line style="fill:none;stroke:#90A4AE;stroke-width:2;stroke-linecap:round;stroke-linejoin:round;stroke-miterlimit:10;" x1="32.17" x2="95.83" y1="93.01" y2="93.01"/>
    <g style="opacity:0.2;">
      <path d="M113.95,89.87v17.74H13.9V89.87H113.95 M115.95,87.87H11.9v21.74h104.05V87.87L115.95,87.87z" style="fill:#444444;"/>
    </g>
    <line style="fill:none;stroke:#90A4AE;stroke-width:2;stroke-linecap:round;stroke-linejoin:round;stroke-miterlimit:10;" x1="32.17" x2="95.83" y1="99.04" y2="99.04"/>
    <linearGradient id="SVGID_1_" gradientUnits="userSpaceOnUse" x1="63.9289" x2="63.9289" y1="52" y2="132.8335">
      <stop offset="0.3438" style="stop-color:#FFCC80"/>
      <stop offset="1" style="stop-color:#FFA726"/>
    </linearGradient>
    <path d="M92,76.11c0,13.15-8.33,27.85-28,27.85s-28-14.7-28-27.85c0-0.01-26.07,0-26.07,0 c-3.31,0-6,2.67-6,5.95v36.01c0,3.29,2.69,5.95,6,5.95h108c3.31,0,6-2.67,6-5.95V82.07c0-3.29-2.69-5.95-6-5.95 C117.93,76.11,92,76.1,92,76.11z" style="fill:url(#SVGID_1_);"/>
    <g style="opacity:0.2;">
      <path d="M98.72,79.11c7.68,0,19.21,0.01,19.21,0.01c1.65,0,3,1.32,3,2.95v36.01c0,1.63-1.35,2.95-3,2.95 h-108c-1.65,0-3-1.32-3-2.95V82.07c0-1.63,1.35-2.95,3-2.95c0,0,11.59-0.01,19.31-0.01c1.68,0,2.94,0,3.89,0 c1.22,13.93,11,27.85,30.87,27.85s29.65-13.92,30.87-27.85C95.81,79.11,97.06,79.11,98.72,79.11 M98.72,76.11 c-3.84,0-6.72,0-6.72,0.01c0,13.15-8.33,27.85-28,27.85s-28-14.7-28-27.85c0,0-2.9-0.01-6.76-0.01c-7.72,0-19.31,0.01-19.31,0.01 c-3.31,0-6,2.67-6,5.95v36.01c0,3.29,2.69,5.95,6,5.95h108c3.31,0,6-2.67,6-5.95V82.07c0-3.29-2.69-5.95-6-5.95 C117.93,76.11,106.4,76.11,98.72,76.11L98.72,76.11z" style="fill:#444444;"/>
    </g>
    <g>
      <linearGradient id="SVGID_2_" gradientTransform="matrix(1 0 0 1 0 -2.2147)" gradientUnits="userSpaceOnUse" x1="64.0673" x2="64.0673" y1="8.8412" y2="66.002">
        <stop offset="7.752710e-03" style="stop-color:#2196F3"/>
        <stop offset="1" style="stop-color:#64B5F6"/>
      </linearGradient>
      <path d="M63.03,67.55L36.1,45.7c-1.21-0.98-0.51-2.93,1.04-2.93H91c1.56,0,2.25,1.95,1.04,2.93 L65.11,67.55C64.5,68.04,63.63,68.04,63.03,67.55z" style="fill:url(#SVGID_2_);"/>
      <linearGradient id="SVGID_3_" gradientTransform="matrix(1 0 0 1 0 -2.2147)" gradientUnits="userSpaceOnUse" x1="64.0673" x2="64.0673" y1="14.8389" y2="63.5896">
        <stop offset="7.752710e-03" style="stop-color:#2196F3"/>
        <stop offset="1" style="stop-color:#64B5F6"/>
      </linearGradient>
      <path d="M76.97,47.39h-25.8c-1.1,0-2-0.9-2-2V11.1c0-1.1,0.9-2,2-2h25.8c1.1,0,2,0.9,2,2v34.29 C78.97,46.5,78.07,47.39,76.97,47.39z" style="fill:url(#SVGID_3_);"/>
    </g>
    <g style="opacity:0.2;">
      <path d="M76.49,11.58v31.19c0,1.37,1.11,2.48,2.48,2.48h9.7l-24.6,19.96l-24.6-19.96h9.7 c1.37,0,2.48-1.11,2.48-2.48V11.58H76.49 M77.32,9.1h-26.5c-0.91,0-1.65,0.74-1.65,1.65v32.01H37.14c-1.56,0-2.25,1.95-1.04,2.93 l26.93,21.85c0.3,0.25,0.67,0.37,1.04,0.37c0.37,0,0.74-0.12,1.04-0.37L92.04,45.7c1.21-0.98,0.51-2.93-1.04-2.93H78.97V10.75 C78.97,9.84,78.23,9.1,77.32,9.1L77.32,9.1z" style="fill:#444444;"/>
    </g>
  </g>
  <g id="レイヤー_1" style="display:none;">
    <g style="display:inline;">
      <g style="opacity:0.6;">
        <circle cx="64" cy="64" r="28" style="opacity:0.61;fill:none;stroke:#000000;stroke-width:0.2625;stroke-miterlimit:10;"/>
        <line style="opacity:0.61;fill:none;stroke:#000000;stroke-width:0.25;stroke-miterlimit:10;" x1="84" x2="84" y1="0" y2="128"/>
        <line style="opacity:0.61;fill:none;stroke:#000000;stroke-width:0.25;stroke-miterlimit:10;" x1="44" x2="44" y1="0" y2="128"/>
        <line style="opacity:0.61;fill:none;stroke:#000000;stroke-width:0.25;stroke-miterlimit:10;" x1="64" x2="64" y1="0" y2="128"/>
        <line style="opacity:0.61;fill:none;stroke:#000000;stroke-width:0.25;stroke-miterlimit:10;" x1="128" x2="0" y1="64" y2="64"/>
        <line style="opacity:0.61;fill:none;stroke:#000000;stroke-width:0.25;stroke-miterlimit:10;" x1="128" x2="0" y1="44" y2="44"/>
        <line style="opacity:0.61;fill:none;stroke:#000000;stroke-width:0.25;stroke-miterlimit:10;" x1="128" x2="0" y1="83.75" y2="83.75"/>
        <line style="opacity:0.61;fill:none;stroke:#000000;stroke-width:0.25;stroke-miterlimit:10;" x1="128" x2="0" y1="128" y2="0"/>
        <line style="opacity:0.61;fill:none;stroke:#000000;stroke-width:0.25;stroke-miterlimit:10;" x1="0" x2="128" y1="128" y2="0"/>
        <g style="opacity:0.61;">
          <path d="M64,4.26c32.94,0,59.74,26.8,59.74,59.74S96.94,123.74,64,123.74S4.26,96.94,4.26,64S31.06,4.26,64,4.26 M64,4 C30.86,4,4,30.86,4,64s26.86,60,60,60s60-26.86,60-60S97.14,4,64,4L64,4z"/>
        </g>
        <path d="M107.97,115.97H20.03 c-4.42,0-8.03-3.61-8.03-8.03V20.03c0-4.42,3.61-8.03,8.03-8.03h87.94c4.42,0,8.03,3.61,8.03,8.03v87.91 C116,112.36,112.39,115.97,107.97,115.97z" style="opacity:0.61;fill:none;stroke:#000000;stroke-width:0.2578;stroke-miterlimit:10;"/>
        <path d="M100,124H28c-4.4,0-8-3.6-8-8 V12c0-4.4,3.6-8,8-8h72c4.4,0,8,3.6,8,8v104C108,120.4,104.4,124,100,124z" style="opacity:0.61;fill:none;stroke:#000000;stroke-width:0.2628;stroke-miterlimit:10;"/>
        <path d="M113.77,108H14.23 C8.6,108,4,103.4,4,97.77V30.28c0-5.63,4.6-10.23,10.23-10.23h99.54c5.63,0,10.23,4.6,10.23,10.23v67.48 C124,103.4,119.4,108,113.77,108z" style="opacity:0.61;fill:none;stroke:#000000;stroke-width:0.2627;stroke-miterlimit:10;"/>
      </g>
      <g>
        <g style="opacity:0.2;">
          <defs>
            <rect id="SVGID_4_" height="128" style="opacity:0.2;" width="128" x="0" y="0"/>
          </defs>
          <clipPath id="SVGID_5_">
            <use style="overflow:visible;" xlink:href="#SVGID_4_"/>
          </clipPath>
          <g style="clip-path:url(#SVGID_5_);">
            <g>
              <line style="fill:none;stroke:#000000;stroke-width:0.25;stroke-miterlimit:10;" x1="-28" x2="-28" y1="160" y2="-32"/>
              <line style="fill:none;stroke:#000000;stroke-width:0.25;stroke-miterlimit:10;" x1="-24" x2="-24" y1="160" y2="-32"/>
              <line style="fill:none;stroke:#000000;stroke-width:0.25;stroke-miterlimit:10;" x1="-20" x2="-20" y1="160" y2="-32"/>
              <line style="fill:none;stroke:#000000;stroke-width:0.25;stroke-miterlimit:10;" x1="-16" x2="-16" y1="160" y2="-32"/>
              <line style="fill:none;stroke:#000000;stroke-width:0.25;stroke-miterlimit:10;" x1="-12" x2="-12" y1="160" y2="-32"/>
              <line style="fill:none;stroke:#000000;stroke-width:0.25;stroke-miterlimit:10;" x1="-8" x2="-8" y1="160" y2="-32"/>
              <line style="fill:none;stroke:#000000;stroke-width:0.25;stroke-miterlimit:10;" x1="-4" x2="-4" y1="160" y2="-32"/>
              <line style="fill:none;stroke:#000000;stroke-width:0.25;stroke-miterlimit:10;" x1="0" x2="0" y1="160" y2="-32"/>
              <line style="fill:none;stroke:#000000;stroke-width:0.25;stroke-miterlimit:10;" x1="4" x2="4" y1="160" y2="-32"/>
              <line style="fill:none;stroke:#000000;stroke-width:0.25;stroke-miterlimit:10;" x1="8" x2="8" y1="160" y2="-32"/>
              <line style="fill:none;stroke:#000000;stroke-width:0.25;stroke-miterlimit:10;" x1="12" x2="12" y1="160" y2="-32"/>
              <line style="fill:none;stroke:#000000;stroke-width:0.25;stroke-miterlimit:10;" x1="16" x2="16" y1="160" y2="-32"/>
              <line style="fill:none;stroke:#000000;stroke-width:0.25;stroke-miterlimit:10;" x1="20" x2="20" y1="160" y2="-32"/>
              <line style="fill:none;stroke:#000000;stroke-width:0.25;stroke-miterlimit:10;" x1="24" x2="24" y1="160" y2="-32"/>
              <line style="fill:none;stroke:#000000;stroke-width:0.25;stroke-miterlimit:10;" x1="28" x2="28" y1="160" y2="-32"/>
              <line style="fill:none;stroke:#000000;stroke-width:0.25;stroke-miterlimit:10;" x1="32" x2="32" y1="160" y2="-32"/>
              <line style="fill:none;stroke:#000000;stroke-width:0.25;stroke-miterlimit:10;" x1="36" x2="36" y1="160" y2="-32"/>
              <line style="fill:none;stroke:#000000;stroke-width:0.25;stroke-miterlimit:10;" x1="40" x2="40" y1="160" y2="-32"/>
              <line style="fill:none;stroke:#000000;stroke-width:0.25;stroke-miterlimit:10;" x1="44" x2="44" y1="160" y2="-32"/>
              <line style="fill:none;stroke:#000000;stroke-width:0.25;stroke-miterlimit:10;" x1="48" x2="48" y1="160" y2="-32"/>
              <line style="fill:none;stroke:#000000;stroke-width:0.25;stroke-miterlimit:10;" x1="52" x2="52" y1="160" y2="-32"/>
              <line style="fill:none;stroke:#000000;stroke-width:0.25;stroke-miterlimit:10;" x1="56" x2="56" y1="160" y2="-32"/>
              <line style="fill:none;stroke:#000000;stroke-width:0.25;stroke-miterlimit:10;" x1="60" x2="60" y1="160" y2="-32"/>
              <line style="fill:none;stroke:#000000;stroke-width:0.25;stroke-miterlimit:10;" x1="64" x2="64" y1="160" y2="-32"/>
              <line style="fill:none;stroke:#000000;stroke-width:0.25;stroke-miterlimit:10;" x1="68" x2="68" y1="160" y2="-32"/>
              <line style="fill:none;stroke:#000000;stroke-width:0.25;stroke-miterlimit:10;" x1="72" x2="72" y1="160" y2="-32"/>
              <line style="fill:none;stroke:#000000;stroke-width:0.25;stroke-miterlimit:10;" x1="76" x2="76" y1="160" y2="-32"/>
              <line style="fill:none;stroke:#000000;stroke-width:0.25;stroke-miterlimit:10;" x1="80" x2="80" y1="160" y2="-32"/>
              <line style="fill:none;stroke:#000000;stroke-width:0.25;stroke-miterlimit:10;" x1="84" x2="84" y1="160" y2="-32"/>
              <line style="fill:none;stroke:#000000;stroke-width:0.25;stroke-miterlimit:10;" x1="88" x2="88" y1="160" y2="-32"/>
              <line style="fill:none;stroke:#000000;stroke-width:0.25;stroke-miterlimit:10;" x1="92" x2="92" y1="160" y2="-32"/>
              <line style="fill:none;stroke:#000000;stroke-width:0.25;stroke-miterlimit:10;" x1="96" x2="96" y1="160" y2="-32"/>
              <line style="fill:none;stroke:#000000;stroke-width:0.25;stroke-miterlimit:10;" x1="100" x2="100" y1="160" y2="-32"/>
              <line style="fill:none;stroke:#000000;stroke-width:0.25;stroke-miterlimit:10;" x1="104" x2="104" y1="160" y2="-32"/>
              <line style="fill:none;stroke:#000000;stroke-width:0.25;stroke-miterlimit:10;" x1="108" x2="108" y1="160" y2="-32"/>
              <line style="fill:none;stroke:#000000;stroke-width:0.25;stroke-miterlimit:10;" x1="112" x2="112" y1="160" y2="-32"/>
              <line style="fill:none;stroke:#000000;stroke-width:0.25;stroke-miterlimit:10;" x1="116" x2="116" y1="160" y2="-32"/>
              <line style="fill:none;stroke:#000000;stroke-width:0.25;stroke-miterlimit:10;" x1="120" x2="120" y1="160" y2="-32"/>
              <line style="fill:none;stroke:#000000;stroke-width:0.25;stroke-miterlimit:10;" x1="124" x2="124" y1="160" y2="-32"/>
              <line style="fill:none;stroke:#000000;stroke-width:0.25;stroke-miterlimit:10;" x1="128" x2="128" y1="160" y2="-32"/>
              <line style="fill:none;stroke:#000000;stroke-width:0.25;stroke-miterlimit:10;" x1="132" x2="132" y1="160" y2="-32"/>
              <line style="fill:none;stroke:#000000;stroke-width:0.25;stroke-miterlimit:10;" x1="136" x2="136" y1="160" y2="-32"/>
              <line style="fill:none;stroke:#000000;stroke-width:0.25;stroke-miterlimit:10;" x1="137" x2="137" y1="166.05" y2="-25.95"/>
              <line style="fill:none;stroke:#000000;stroke-width:0.25;stroke-miterlimit:10;" x1="144" x2="144" y1="160" y2="-32"/>
              <line style="fill:none;stroke:#000000;stroke-width:0.25;stroke-miterlimit:10;" x1="148" x2="148" y1="160" y2="-32"/>
              <line style="fill:none;stroke:#000000;stroke-width:0.25;stroke-miterlimit:10;" x1="152" x2="152" y1="160" y2="-32"/>
              <line style="fill:none;stroke:#000000;stroke-width:0.25;stroke-miterlimit:10;" x1="156" x2="156" y1="160" y2="-32"/>
            </g>
            <g>
              <line style="fill:none;stroke:#000000;stroke-width:0.25;stroke-miterlimit:10;" x1="-32" x2="160" y1="-28" y2="-28"/>
              <line style="fill:none;stroke:#000000;stroke-width:0.25;stroke-miterlimit:10;" x1="-32" x2="160" y1="-24" y2="-24"/>
              <line style="fill:none;stroke:#000000;stroke-width:0.25;stroke-miterlimit:10;" x1="-32" x2="160" y1="-20" y2="-20"/>
              <line style="fill:none;stroke:#000000;stroke-width:0.25;stroke-miterlimit:10;" x1="-32" x2="160" y1="-16" y2="-16"/>
              <line style="fill:none;stroke:#000000;stroke-width:0.25;stroke-miterlimit:10;" x1="-32" x2="160" y1="-12" y2="-12"/>
              <line style="fill:none;stroke:#000000;stroke-width:0.25;stroke-miterlimit:10;" x1="-32" x2="160" y1="-8" y2="-8"/>
              <line style="fill:none;stroke:#000000;stroke-width:0.25;stroke-miterlimit:10;" x1="-32" x2="160" y1="-4" y2="-4"/>
              <line style="fill:none;stroke:#000000;stroke-width:0.25;stroke-miterlimit:10;" x1="-32" x2="160" y1="0" y2="0"/>
              <line style="fill:none;stroke:#000000;stroke-width:0.25;stroke-miterlimit:10;" x1="-32" x2="160" y1="4" y2="4"/>
              <line style="fill:none;stroke:#000000;stroke-width:0.25;stroke-miterlimit:10;" x1="-32" x2="160" y1="8" y2="8"/>
              <line style="fill:none;stroke:#000000;stroke-width:0.25;stroke-miterlimit:10;" x1="-32" x2="160" y1="12" y2="12"/>
              <line style="fill:none;stroke:#000000;stroke-width:0.25;stroke-miterlimit:10;" x1="-32" x2="160" y1="16" y2="16"/>
              <line style="fill:none;stroke:#000000;stroke-width:0.25;stroke-miterlimit:10;" x1="-32" x2="160" y1="20" y2="20"/>
              <line style="fill:none;stroke:#000000;stroke-width:0.25;stroke-miterlimit:10;" x1="-32" x2="160" y1="24" y2="24"/>
              <line style="fill:none;stroke:#000000;stroke-width:0.25;stroke-miterlimit:10;" x1="-32" x2="160" y1="28" y2="28"/>
              <line style="fill:none;stroke:#000000;stroke-width:0.25;stroke-miterlimit:10;" x1="-32" x2="160" y1="32" y2="32"/>
              <line style="fill:none;stroke:#000000;stroke-width:0.25;stroke-miterlimit:10;" x1="-32" x2="160" y1="36" y2="36"/>
              <line style="fill:none;stroke:#000000;stroke-width:0.25;stroke-miterlimit:10;" x1="-32" x2="160" y1="40" y2="40"/>
              <line style="fill:none;stroke:#000000;stroke-width:0.25;stroke-miterlimit:10;" x1="-32" x2="160" y1="44" y2="44"/>
              <line style="fill:none;stroke:#000000;stroke-width:0.25;stroke-miterlimit:10;" x1="-32" x2="160" y1="48" y2="48"/>
              <line style="fill:none;stroke:#000000;stroke-width:0.25;stroke-miterlimit:10;" x1="-32" x2="160" y1="52" y2="52"/>
              <line style="fill:none;stroke:#000000;stroke-width:0.25;stroke-miterlimit:10;" x1="-32" x2="160" y1="56" y2="56"/>
              <line style="fill:none;stroke:#000000;stroke-width:0.25;stroke-miterlimit:10;" x1="-32" x2="160" y1="60" y2="60"/>
              <line style="fill:none;stroke:#000000;stroke-width:0.25;stroke-miterlimit:10;" x1="-32" x2="160" y1="64" y2="64"/>
              <line style="fill:none;stroke:#000000;stroke-width:0.25;stroke-miterlimit:10;" x1="-32" x2="160" y1="68" y2="68"/>
              <line style="fill:none;stroke:#000000;stroke-width:0.25;stroke-miterlimit:10;" x1="-32" x2="160" y1="72" y2="72"/>
              <line style="fill:none;stroke:#000000;stroke-width:0.25;stroke-miterlimit:10;" x1="-32" x2="160" y1="76" y2="76"/>
              <line style="fill:none;stroke:#000000;stroke-width:0.25;stroke-miterlimit:10;" x1="-32" x2="160" y1="80" y2="80"/>
              <line style="fill:none;stroke:#000000;stroke-width:0.25;stroke-miterlimit:10;" x1="-32" x2="160" y1="84" y2="84"/>
              <line style="fill:none;stroke:#000000;stroke-width:0.25;stroke-miterlimit:10;" x1="-32" x2="160" y1="88" y2="88"/>
              <line style="fill:none;stroke:#000000;stroke-width:0.25;stroke-miterlimit:10;" x1="-32" x2="160" y1="92" y2="92"/>
              <line style="fill:none;stroke:#000000;stroke-width:0.25;stroke-miterlimit:10;" x1="-32" x2="160" y1="96" y2="96"/>
              <line style="fill:none;stroke:#000000;stroke-width:0.25;stroke-miterlimit:10;" x1="-32" x2="160" y1="100" y2="100"/>
              <line style="fill:none;stroke:#000000;stroke-width:0.25;stroke-miterlimit:10;" x1="-32" x2="160" y1="104" y2="104"/>
              <line style="fill:none;stroke:#000000;stroke-width:0.25;stroke-miterlimit:10;" x1="-32" x2="160" y1="108" y2="108"/>
              <line style="fill:none;stroke:#000000;stroke-width:0.25;stroke-miterlimit:10;" x1="-32" x2="160" y1="112" y2="112"/>
              <line style="fill:none;stroke:#000000;stroke-width:0.25;stroke-miterlimit:10;" x1="-32" x2="160" y1="116" y2="116"/>
              <line style="fill:none;stroke:#000000;stroke-width:0.25;stroke-miterlimit:10;" x1="-32" x2="160" y1="120" y2="120"/>
              <line style="fill:none;stroke:#000000;stroke-width:0.25;stroke-miterlimit:10;" x1="-32" x2="160" y1="124" y2="124"/>
              <line style="fill:none;stroke:#000000;stroke-width:0.25;stroke-miterlimit:10;" x1="-32" x2="160" y1="128" y2="128"/>
              <line style="fill:none;stroke:#000000;stroke-width:0.25;stroke-miterlimit:10;" x1="-32" x2="160" y1="132" y2="132"/>
              <line style="fill:none;stroke:#000000;stroke-width:0.25;stroke-miterlimit:10;" x1="-32" x2="160" y1="136" y2="136"/>
              <line style="fill:none;stroke:#000000;stroke-width:0.25;stroke-miterlimit:10;" x1="-32" x2="160" y1="140" y2="140"/>
              <line style="fill:none;stroke:#000000;stroke-width:0.25;stroke-miterlimit:10;" x1="-32" x2="160" y1="144" y2="144"/>
              <line style="fill:none;stroke:#000000;stroke-width:0.25;stroke-miterlimit:10;" x1="-32" x2="160" y1="148" y2="148"/>
              <line style="fill:none;stroke:#000000;stroke-width:0.25;stroke-miterlimit:10;" x1="-32" x2="160" y1="152" y2="152"/>
              <line style="fill:none;stroke:#000000;stroke-width:0.25;stroke-miterlimit:10;" x1="-32" x2="160" y1="156" y2="156"/>
            </g>
            <path d="M159.75-31.75v191.5h-191.5v-191.5H159.75 M160-32H-32v192h192V-32L160-32z"/>
          </g>
        </g>
        <g>
          <rect height="128" style="opacity:0.3;fill:#EF4438;" width="4" x="0" y="0"/>
          <rect height="128" style="opacity:0.3;fill:#EF4438;" width="4" x="124" y="0"/>
          <rect height="120" style="opacity:0.3;fill:#EF4438;" transform="matrix(-1.836970e-16 1 -1 -1.836970e-16 66 -62)" width="4" x="62" y="-58"/>
          <rect height="120" style="opacity:0.3;fill:#EF4438;" transform="matrix(-1.836970e-16 1 -1 -1.836970e-16 190 62)" width="4" x="62" y="66"/>
        </g>
      </g>
    </g>
  </g>
</svg>
